lin_to_log113.cube
LUT_1D_SIZE 12288
0.0000000000 0.0000000000 0.0000000000
0.0019194599 0.0019194599 0.0019194599
0.0038216591 0.0038216591 0.0038216591
0.0057069051 0.0057069051 0.0057069051
0.0075754977 0.0075754977 0.0075754977
0.0094277284 0.0094277284 0.0094277284
0.0112638812 0.0112638812 0.0112638812
0.0130842328 0.0130842328 0.0130842328
0.0148890530 0.0148890530 0.0148890530
0.0166786045 0.0166786045 0.0166786045
0.0184531435 0.0184531435 0.0184531435
0.0202129197 0.0202129197 0.0202129197
0.0219581768 0.0219581768 0.0219581768
0.0236891524 0.0236891524 0.0236891524
0.0254060784 0.0254060784 0.0254060784
0.0271091809 0.0271091809 0.0271091809
0.0287986808 0.0287986808 0.0287986808
0.0304747936 0.0304747936 0.0304747936
0.0321377298 0.0321377298 0.0321377298
0.0337876951 0.0337876951 0.0337876951
0.0354248901 0.0354248901 0.0354248901
0.0370495111 0.0370495111 0.0370495111
0.0386617496 0.0386617496 0.0386617496
0.0402617931 0.0402617931 0.0402617931
0.0418498246 0.0418498246 0.0418498246
0.0434260232 0.0434260232 0.0434260232
0.0449905638 0.0449905638 0.0449905638
0.0465436177 0.0465436177 0.0465436177
0.0480853523 0.0480853523 0.0480853523
0.0496159315 0.0496159315 0.0496159315
0.0511355154 0.0511355154 0.0511355154
0.0526442609 0.0526442609 0.0526442609
0.0541423216 0.0541423216 0.0541423216
0.0556298477 0.0556298477 0.0556298477
0.0571069864 0.0571069864 0.0571069864
0.0585738817 0.0585738817 0.0585738817
0.0600306747 0.0600306747 0.0600306747
0.0614775036 0.0614775036 0.0614775036
0.0629145038 0.0629145038 0.0629145038
0.0643418079 0.0643418079 0.0643418079
0.0657595459 0.0657595459 0.0657595459
0.0671678451 0.0671678451 0.0671678451
0.0685668305 0.0685668305 0.0685668305
0.0699566244 0.0699566244 0.0699566244
0.0713373467 0.0713373467 0.0713373467
0.0727091152 0.0727091152 0.0727091152
0.0740720453 0.0740720453 0.0740720453
0.0754262500 0.0754262500 0.0754262500
0.0767718404 0.0767718404 0.0767718404
0.0781089255 0.0781089255 0.0781089255
0.0794376120 0.0794376120 0.0794376120
0.0807580047 0.0807580047 0.0807580047
0.0820702067 0.0820702067 0.0820702067
0.0833743189 0.0833743189 0.0833743189
0.0846704404 0.0846704404 0.0846704404
0.0859586686 0.0859586686 0.0859586686
0.0872390990 0.0872390990 0.0872390990
0.0885118254 0.0885118254 0.0885118254
0.0897769400 0.0897769400 0.0897769400
0.0910345333 0.0910345333 0.0910345333
0.0922846943 0.0922846943 0.0922846943
0.0935275101 0.0935275101 0.0935275101
0.0947630668 0.0947630668 0.0947630668
0.0959914484 0.0959914484 0.0959914484
0.0972127380 0.0972127380 0.0972127380
0.0984270169 0.0984270169 0.0984270169
0.0996343652 0.0996343652 0.0996343652
0.1008348615 0.1008348615 0.1008348615
0.1020285832 0.1020285832 0.1020285832
0.1032156062 0.1032156062 0.1032156062
0.1043960054 0.1043960054 0.1043960054
0.1055698543 0.1055698543 0.1055698543
0.1067372251 0.1067372251 0.1067372251
0.1078981890 0.1078981890 0.1078981890
0.1090528159 0.1090528159 0.1090528159
0.1102011747 0.1102011747 0.1102011747
0.1113433329 0.1113433329 0.1113433329
0.1124793573 0.1124793573 0.1124793573
0.1136093133 0.1136093133 0.1136093133
0.1147332654 0.1147332654 0.1147332654
0.1158512771 0.1158512771 0.1158512771
0.1169634108 0.1169634108 0.1169634108
0.1180697281 0.1180697281 0.1180697281
0.1191702895 0.1191702895 0.1191702895
0.1202651545 0.1202651545 0.1202651545
0.1213543818 0.1213543818 0.1213543818
0.1224380292 0.1224380292 0.1224380292
0.1235161535 0.1235161535 0.1235161535
0.1245888108 0.1245888108 0.1245888108
0.1256560562 0.1256560562 0.1256560562
0.1267179441 0.1267179441 0.1267179441
0.1277745280 0.1277745280 0.1277745280
0.1288258606 0.1288258606 0.1288258606
0.1298719938 0.1298719938 0.1298719938
0.1309129788 0.1309129788 0.1309129788
0.1319488661 0.1319488661 0.1319488661
0.1329797054 0.1329797054 0.1329797054
0.1340055455 0.1340055455 0.1340055455
0.1350264347 0.1350264347 0.1350264347
0.1360424207 0.1360424207 0.1360424207
0.1370535502 0.1370535502 0.1370535502
0.1380598695 0.1380598695 0.1380598695
0.1390614242 0.1390614242 0.1390614242
0.1400582590 0.1400582590 0.1400582590
0.1410504184 0.1410504184 0.1410504184
0.1420379460 0.1420379460 0.1420379460
0.1430208848 0.1430208848 0.1430208848
0.1439992772 0.1439992772 0.1439992772
0.1449731652 0.1449731652 0.1449731652
0.1459425900 0.1459425900 0.1459425900
0.1469075923 0.1469075923 0.1469075923
0.1478682123 0.1478682123 0.1478682123
0.1488244897 0.1488244897 0.1488244897
0.1497764634 0.1497764634 0.1497764634
0.1507241722 0.1507241722 0.1507241722
0.1516676539 0.1516676539 0.1516676539
0.1526069462 0.1526069462 0.1526069462
0.1535420861 0.1535420861 0.1535420861
0.1544731102 0.1544731102 0.1544731102
0.1554000545 0.1554000545 0.1554000545
0.1563229546 0.1563229546 0.1563229546
0.1572418456 0.1572418456 0.1572418456
0.1581567623 0.1581567623 0.1581567623
0.1590677389 0.1590677389 0.1590677389
0.1599748091 0.1599748091 0.1599748091
0.1608780063 0.1608780063 0.1608780063
0.1617773635 0.1617773635 0.1617773635
0.1626729132 0.1626729132 0.1626729132
0.1635646874 0.1635646874 0.1635646874
0.1644527179 0.1644527179 0.1644527179
0.1653370360 0.1653370360 0.1653370360
0.1662176726 0.1662176726 0.1662176726
0.1670946581 0.1670946581 0.1670946581
0.1679680228 0.1679680228 0.1679680228
0.1688377965 0.1688377965 0.1688377965
0.1697040084 0.1697040084 0.1697040084
0.1705666878 0.1705666878 0.1705666878
0.1714258633 0.1714258633 0.1714258633
0.1722815632 0.1722815632 0.1722815632
0.1731338155 0.1731338155 0.1731338155
0.1739826480 0.1739826480 0.1739826480
0.1748280879 0.1748280879 0.1748280879
0.1756701623 0.1756701623 0.1756701623
0.1765088978 0.1765088978 0.1765088978
0.1773443208 0.1773443208 0.1773443208
0.1781764574 0.1781764574 0.1781764574
0.1790053334 0.1790053334 0.1790053334
0.1798309741 0.1798309741 0.1798309741
0.1806534048 0.1806534048 0.1806534048
0.1814726503 0.1814726503 0.1814726503
0.1822887352 0.1822887352 0.1822887352
0.1831016837 0.1831016837 0.1831016837
0.1839115200 0.1839115200 0.1839115200
0.1847182677 0.1847182677 0.1847182677
0.1855219503 0.1855219503 0.1855219503
0.1863225910 0.1863225910 0.1863225910
0.1871202127 0.1871202127 0.1871202127
0.1879148382 0.1879148382 0.1879148382
0.1887064899 0.1887064899 0.1887064899
0.1894951898 0.1894951898 0.1894951898
0.1902809601 0.1902809601 0.1902809601
0.1910638222 0.1910638222 0.1910638222
0.1918437978 0.1918437978 0.1918437978
0.1926209080 0.1926209080 0.1926209080
0.1933951737 0.1933951737 0.1933951737
0.1941666158 0.1941666158 0.1941666158
0.1949352547 0.1949352547 0.1949352547
0.1957011107 0.1957011107 0.1957011107
0.1964642040 0.1964642040 0.1964642040
0.1972245543 0.1972245543 0.1972245543
0.1979821814 0.1979821814 0.1979821814
0.1987371046 0.1987371046 0.1987371046
0.1994893433 0.1994893433 0.1994893433
0.2002389163 0.2002389163 0.2002389163
0.2009858426 0.2009858426 0.2009858426
0.2017301408 0.2017301408 0.2017301408
0.2024718293 0.2024718293 0.2024718293
0.2032109263 0.2032109263 0.2032109263
0.2039474499 0.2039474499 0.2039474499
0.2046814180 0.2046814180 0.2046814180
0.2054128481 0.2054128481 0.2054128481
0.2061417579 0.2061417579 0.2061417579
0.2068681646 0.2068681646 0.2068681646
0.2075920853 0.2075920853 0.2075920853
0.2083135371 0.2083135371 0.2083135371
0.2090325366 0.2090325366 0.2090325366
0.2097491006 0.2097491006 0.2097491006
0.2104632453 0.2104632453 0.2104632453
0.2111749873 0.2111749873 0.2111749873
0.2118843424 0.2118843424 0.2118843424
0.2125913268 0.2125913268 0.2125913268
0.2132959561 0.2132959561 0.2132959561
0.2139982461 0.2139982461 0.2139982461
0.2146982122 0.2146982122 0.2146982122
0.2153958698 0.2153958698 0.2153958698
0.2160912339 0.2160912339 0.2160912339
0.2167843197 0.2167843197 0.2167843197
0.2174751421 0.2174751421 0.2174751421
0.2181637157 0.2181637157 0.2181637157
0.2188500551 0.2188500551 0.2188500551
0.2195341749 0.2195341749 0.2195341749
0.2202160893 0.2202160893 0.2202160893
0.2208958124 0.2208958124 0.2208958124
0.2215733584 0.2215733584 0.2215733584
0.2222487412 0.2222487412 0.2222487412
0.2229219744 0.2229219744 0.2229219744
0.2235930718 0.2235930718 0.2235930718
0.2242620468 0.2242620468 0.2242620468
0.2249289129 0.2249289129 0.2249289129
0.2255936832 0.2255936832 0.2255936832
0.2262563710 0.2262563710 0.2262563710
0.2269169892 0.2269169892 0.2269169892
0.2275755507 0.2275755507 0.2275755507
0.2282320683 0.2282320683 0.2282320683
0.2288865546 0.2288865546 0.2288865546
0.2295390221 0.2295390221 0.2295390221
0.2301894834 0.2301894834 0.2301894834
0.2308379506 0.2308379506 0.2308379506
0.2314844359 0.2314844359 0.2314844359
0.2321289516 0.2321289516 0.2321289516
0.2327715094 0.2327715094 0.2327715094
0.2334121212 0.2334121212 0.2334121212
0.2340507989 0.2340507989 0.2340507989
0.2346875541 0.2346875541 0.2346875541
0.2353223982 0.2353223982 0.2353223982
0.2359553428 0.2359553428 0.2359553428
0.2365863991 0.2365863991 0.2365863991
0.2372155785 0.2372155785 0.2372155785
0.2378428920 0.2378428920 0.2378428920
0.2384683506 0.2384683506 0.2384683506
0.2390919654 0.2390919654 0.2390919654
0.2397137471 0.2397137471 0.2397137471
0.2403337065 0.2403337065 0.2403337065
0.2409518542 0.2409518542 0.2409518542
0.2415682008 0.2415682008 0.2415682008
0.2421827568 0.2421827568 0.2421827568
0.2427955325 0.2427955325 0.2427955325
0.2434065382 0.2434065382 0.2434065382
0.2440157842 0.2440157842 0.2440157842
0.2446232805 0.2446232805 0.2446232805
0.2452290371 0.2452290371 0.2452290371
0.2458330640 0.2458330640 0.2458330640
0.2464353710 0.2464353710 0.2464353710
0.2470359679 0.2470359679 0.2470359679
0.2476348644 0.2476348644 0.2476348644
0.2482320701 0.2482320701 0.2482320701
0.2488275945 0.2488275945 0.2488275945
0.2494214470 0.2494214470 0.2494214470
0.2500136370 0.2500136370 0.2500136370
0.2506041738 0.2506041738 0.2506041738
0.2511930666 0.2511930666 0.2511930666
0.2517803246 0.2517803246 0.2517803246
0.2523659566 0.2523659566 0.2523659566
0.2529499719 0.2529499719 0.2529499719
0.2535323792 0.2535323792 0.2535323792
0.2541131873 0.2541131873 0.2541131873
0.2546924051 0.2546924051 0.2546924051
0.2552700412 0.2552700412 0.2552700412
0.2558461043 0.2558461043 0.2558461043
0.2564206028 0.2564206028 0.2564206028
0.2569935454 0.2569935454 0.2569935454
0.2575649402 0.2575649402 0.2575649402
0.2581347958 0.2581347958 0.2581347958
0.2587031203 0.2587031203 0.2587031203
0.2592699220 0.2592699220 0.2592699220
0.2598352091 0.2598352091 0.2598352091
0.2603989895 0.2603989895 0.2603989895
0.2609612713 0.2609612713 0.2609612713
0.2615220625 0.2615220625 0.2615220625
0.2620813709 0.2620813709 0.2620813709
0.2626392044 0.2626392044 0.2626392044
0.2631955706 0.2631955706 0.2631955706
0.2637504774 0.2637504774 0.2637504774
0.2643039323 0.2643039323 0.2643039323
0.2648559429 0.2648559429 0.2648559429
0.2654065168 0.2654065168 0.2654065168
0.2659556614 0.2659556614 0.2659556614
0.2665033841 0.2665033841 0.2665033841
0.2670496922 0.2670496922 0.2670496922
0.2675945930 0.2675945930 0.2675945930
0.2681380938 0.2681380938 0.2681380938
0.2686802018 0.2686802018 0.2686802018
0.2692209240 0.2692209240 0.2692209240
0.2697602675 0.2697602675 0.2697602675
0.2702982394 0.2702982394 0.2702982394
0.2708348466 0.2708348466 0.2708348466
0.2713700960 0.2713700960 0.2713700960
0.2719039944 0.2719039944 0.2719039944
0.2724365487 0.2724365487 0.2724365487
0.2729677657 0.2729677657 0.2729677657
0.2734976519 0.2734976519 0.2734976519
0.2740262141 0.2740262141 0.2740262141
0.2745534588 0.2745534588 0.2745534588
0.2750793927 0.2750793927 0.2750793927
0.2756040222 0.2756040222 0.2756040222
0.2761273538 0.2761273538 0.2761273538
0.2766493938 0.2766493938 0.2766493938
0.2771701487 0.2771701487 0.2771701487
0.2776896247 0.2776896247 0.2776896247
0.2782078281 0.2782078281 0.2782078281
0.2787247652 0.2787247652 0.2787247652
0.2792404420 0.2792404420 0.2792404420
0.2797548649 0.2797548649 0.2797548649
0.2802680397 0.2802680397 0.2802680397
0.2807799726 0.2807799726 0.2807799726
0.2812906695 0.2812906695 0.2812906695
0.2818001365 0.2818001365 0.2818001365
0.2823083794 0.2823083794 0.2823083794
0.2828154041 0.2828154041 0.2828154041
0.2833212164 0.2833212164 0.2833212164
0.2838258221 0.2838258221 0.2838258221
0.2843292269 0.2843292269 0.2843292269
0.2848314366 0.2848314366 0.2848314366
0.2853324568 0.2853324568 0.2853324568
0.2858322931 0.2858322931 0.2858322931
0.2863309512 0.2863309512 0.2863309512
0.2868284364 0.2868284364 0.2868284364
0.2873247545 0.2873247545 0.2873247545
0.2878199107 0.2878199107 0.2878199107
0.2883139107 0.2883139107 0.2883139107
0.2888067596 0.2888067596 0.2888067596
0.2892984629 0.2892984629 0.2892984629
0.2897890260 0.2897890260 0.2897890260
0.2902784540 0.2902784540 0.2902784540
0.2907667522 0.2907667522 0.2907667522
0.2912539258 0.2912539258 0.2912539258
0.2917399801 0.2917399801 0.2917399801
0.2922249200 0.2922249200 0.2922249200
0.2927087508 0.2927087508 0.2927087508
0.2931914774 0.2931914774 0.2931914774
0.2936731050 0.2936731050 0.2936731050
0.2941536384 0.2941536384 0.2941536384
0.2946330828 0.2946330828 0.2946330828
0.2951114429 0.2951114429 0.2951114429
0.2955887237 0.2955887237 0.2955887237
0.2960649300 0.2960649300 0.2960649300
0.2965400667 0.2965400667 0.2965400667
0.2970141385 0.2970141385 0.2970141385
0.2974871503 0.2974871503 0.2974871503
0.2979591067 0.2979591067 0.2979591067
0.2984300125 0.2984300125 0.2984300125
0.2988998723 0.2988998723 0.2988998723
0.2993686908 0.2993686908 0.2993686908
0.2998364725 0.2998364725 0.2998364725
0.3003032220 0.3003032220 0.3003032220
0.3007689440 0.3007689440 0.3007689440
0.3012336428 0.3012336428 0.3012336428
0.3016973230 0.3016973230 0.3016973230
0.3021599890 0.3021599890 0.3021599890
0.3026216454 0.3026216454 0.3026216454
0.3030822963 0.3030822963 0.3030822963
0.3035419463 0.3035419463 0.3035419463
0.3040005997 0.3040005997 0.3040005997
0.3044582608 0.3044582608 0.3044582608
0.3049149338 0.3049149338 0.3049149338
0.3053706231 0.3053706231 0.3053706231
0.3058253328 0.3058253328 0.3058253328
0.3062790671 0.3062790671 0.3062790671
0.3067318303 0.3067318303 0.3067318303
0.3071836265 0.3071836265 0.3071836265
0.3076344598 0.3076344598 0.3076344598
0.3080843343 0.3080843343 0.3080843343
0.3085332540 0.3085332540 0.3085332540
0.3089812231 0.3089812231 0.3089812231
0.3094282455 0.3094282455 0.3094282455
0.3098743252 0.3098743252 0.3098743252
0.3103194662 0.3103194662 0.3103194662
0.3107636724 0.3107636724 0.3107636724
0.3112069478 0.3112069478 0.3112069478
0.3116492962 0.3116492962 0.3116492962
0.3120907216 0.3120907216 0.3120907216
0.3125312277 0.3125312277 0.3125312277
0.3129708184 0.3129708184 0.3129708184
0.3134094974 0.3134094974 0.3134094974
0.3138472686 0.3138472686 0.3138472686
0.3142841357 0.3142841357 0.3142841357
0.3147201024 0.3147201024 0.3147201024
0.3151551725 0.3151551725 0.3151551725
0.3155893495 0.3155893495 0.3155893495
0.3160226372 0.3160226372 0.3160226372
0.3164550392 0.3164550392 0.3164550392
0.3168865592 0.3168865592 0.3168865592
0.3173172006 0.3173172006 0.3173172006
0.3177469672 0.3177469672 0.3177469672
0.3181758623 0.3181758623 0.3181758623
0.3186038896 0.3186038896 0.3186038896
0.3190310526 0.3190310526 0.3190310526
0.3194573546 0.3194573546 0.3194573546
0.3198827993 0.3198827993 0.3198827993
0.3203073901 0.3203073901 0.3203073901
0.3207311303 0.3207311303 0.3207311303
0.3211540234 0.3211540234 0.3211540234
0.3215760727 0.3215760727 0.3215760727
0.3219972816 0.3219972816 0.3219972816
0.3224176535 0.3224176535 0.3224176535
0.3228371916 0.3228371916 0.3228371916
0.3232558994 0.3232558994 0.3232558994
0.3236737799 0.3236737799 0.3236737799
0.3240908366 0.3240908366 0.3240908366
0.3245070726 0.3245070726 0.3245070726
0.3249224912 0.3249224912 0.3249224912
0.3253370956 0.3253370956 0.3253370956
0.3257508890 0.3257508890 0.3257508890
0.3261638745 0.3261638745 0.3261638745
0.3265760552 0.3265760552 0.3265760552
0.3269874344 0.3269874344 0.3269874344
0.3273980151 0.3273980151 0.3273980151
0.3278078004 0.3278078004 0.3278078004
0.3282167934 0.3282167934 0.3282167934
0.3286249972 0.3286249972 0.3286249972
0.3290324148 0.3290324148 0.3290324148
0.3294390491 0.3294390491 0.3294390491
0.3298449033 0.3298449033 0.3298449033
0.3302499803 0.3302499803 0.3302499803
0.3306542831 0.3306542831 0.3306542831
0.3310578146 0.3310578146 0.3310578146
0.3314605778 0.3314605778 0.3314605778
0.3318625755 0.3318625755 0.3318625755
0.3322638108 0.3322638108 0.3322638108
0.3326642864 0.3326642864 0.3326642864
0.3330640053 0.3330640053 0.3330640053
0.3334629703 0.3334629703 0.3334629703
0.3338611842 0.3338611842 0.3338611842
0.3342586499 0.3342586499 0.3342586499
0.3346553702 0.3346553702 0.3346553702
0.3350513478 0.3350513478 0.3350513478
0.3354465856 0.3354465856 0.3354465856
0.3358410863 0.3358410863 0.3358410863
0.3362348526 0.3362348526 0.3362348526
0.3366278873 0.3366278873 0.3366278873
0.3370201930 0.3370201930 0.3370201930
0.3374117726 0.3374117726 0.3374117726
0.3378026286 0.3378026286 0.3378026286
0.3381927637 0.3381927637 0.3381927637
0.3385821807 0.3385821807 0.3385821807
0.3389708821 0.3389708821 0.3389708821
0.3393588705 0.3393588705 0.3393588705
0.3397461486 0.3397461486 0.3397461486
0.3401327190 0.3401327190 0.3401327190
0.3405185842 0.3405185842 0.3405185842
0.3409037468 0.3409037468 0.3409037468
0.3412882093 0.3412882093 0.3412882093
0.3416719744 0.3416719744 0.3416719744
0.3420550445 0.3420550445 0.3420550445
0.3424374222 0.3424374222 0.3424374222
0.3428191099 0.3428191099 0.3428191099
0.3432001101 0.3432001101 0.3432001101
0.3435804254 0.3435804254 0.3435804254
0.3439600581 0.3439600581 0.3439600581
0.3443390106 0.3443390106 0.3443390106
0.3447172856 0.3447172856 0.3447172856
0.3450948853 0.3450948853 0.3450948853
0.3454718121 0.3454718121 0.3454718121
0.3458480685 0.3458480685 0.3458480685
0.3462236569 0.3462236569 0.3462236569
0.3465985795 0.3465985795 0.3465985795
0.3469728388 0.3469728388 0.3469728388
0.3473464371 0.3473464371 0.3473464371
0.3477193768 0.3477193768 0.3477193768
0.3480916601 0.3480916601 0.3480916601
0.3484632893 0.3484632893 0.3484632893
0.3488342669 0.3488342669 0.3488342669
0.3492045949 0.3492045949 0.3492045949
0.3495742758 0.3495742758 0.3495742758
0.3499433117 0.3499433117 0.3499433117
0.3503117049 0.3503117049 0.3503117049
0.3506794577 0.3506794577 0.3506794577
0.3510465722 0.3510465722 0.3510465722
0.3514130507 0.3514130507 0.3514130507
0.3517788954 0.3517788954 0.3517788954
0.3521441085 0.3521441085 0.3521441085
0.3525086921 0.3525086921 0.3525086921
0.3528726484 0.3528726484 0.3528726484
0.3532359796 0.3532359796 0.3532359796
0.3535986878 0.3535986878 0.3535986878
0.3539607752 0.3539607752 0.3539607752
0.3543222438 0.3543222438 0.3543222438
0.3546830957 0.3546830957 0.3546830957
0.3550433332 0.3550433332 0.3550433332
0.3554029582 0.3554029582 0.3554029582
0.3557619729 0.3557619729 0.3557619729
0.3561203792 0.3561203792 0.3561203792
0.3564781794 0.3564781794 0.3564781794
0.3568353754 0.3568353754 0.3568353754
0.3571919692 0.3571919692 0.3571919692
0.3575479629 0.3575479629 0.3575479629
0.3579033585 0.3579033585 0.3579033585
0.3582581580 0.3582581580 0.3582581580
0.3586123634 0.3586123634 0.3586123634
0.3589659766 0.3589659766 0.3589659766
0.3593189998 0.3593189998 0.3593189998
0.3596714348 0.3596714348 0.3596714348
0.3600232835 0.3600232835 0.3600232835
0.3603745480 0.3603745480 0.3603745480
0.3607252302 0.3607252302 0.3607252302
0.3610753319 0.3610753319 0.3610753319
0.3614248552 0.3614248552 0.3614248552
0.3617738019 0.3617738019 0.3617738019
0.3621221739 0.3621221739 0.3621221739
0.3624699732 0.3624699732 0.3624699732
0.3628172015 0.3628172015 0.3628172015
0.3631638608 0.3631638608 0.3631638608
0.3635099529 0.3635099529 0.3635099529
0.3638554797 0.3638554797 0.3638554797
0.3642004430 0.3642004430 0.3642004430
0.3645448447 0.3645448447 0.3645448447
0.3648886866 0.3648886866 0.3648886866
0.3652319705 0.3652319705 0.3652319705
0.3655746981 0.3655746981 0.3655746981
0.3659168714 0.3659168714 0.3659168714
0.3662584921 0.3662584921 0.3662584921
0.3665995620 0.3665995620 0.3665995620
0.3669400828 0.3669400828 0.3669400828
0.3672800563 0.3672800563 0.3672800563
0.3676194843 0.3676194843 0.3676194843
0.3679583686 0.3679583686 0.3679583686
0.3682967108 0.3682967108 0.3682967108
0.3686345127 0.3686345127 0.3686345127
0.3689717760 0.3689717760 0.3689717760
0.3693085024 0.3693085024 0.3693085024
0.3696446937 0.3696446937 0.3696446937
0.3699803515 0.3699803515 0.3699803515
0.3703154776 0.3703154776 0.3703154776
0.3706500735 0.3706500735 0.3706500735
0.3709841411 0.3709841411 0.3709841411
0.3713176819 0.3713176819 0.3713176819
0.3716506976 0.3716506976 0.3716506976
0.3719831898 0.3719831898 0.3719831898
0.3723151603 0.3723151603 0.3723151603
0.3726466106 0.3726466106 0.3726466106
0.3729775423 0.3729775423 0.3729775423
0.3733079572 0.3733079572 0.3733079572
0.3736378567 0.3736378567 0.3736378567
0.3739672426 0.3739672426 0.3739672426
0.3742961163 0.3742961163 0.3742961163
0.3746244796 0.3746244796 0.3746244796
0.3749523339 0.3749523339 0.3749523339
0.3752796808 0.3752796808 0.3752796808
0.3756065220 0.3756065220 0.3756065220
0.3759328589 0.3759328589 0.3759328589
0.3762586932 0.3762586932 0.3762586932
0.3765840263 0.3765840263 0.3765840263
0.3769088599 0.3769088599 0.3769088599
0.3772331954 0.3772331954 0.3772331954
0.3775570344 0.3775570344 0.3775570344
0.3778803783 0.3778803783 0.3778803783
0.3782032288 0.3782032288 0.3782032288
0.3785255873 0.3785255873 0.3785255873
0.3788474552 0.3788474552 0.3788474552
0.3791688342 0.3791688342 0.3791688342
0.3794897256 0.3794897256 0.3794897256
0.3798101310 0.3798101310 0.3798101310
0.3801300518 0.3801300518 0.3801300518
0.3804494895 0.3804494895 0.3804494895
0.3807684455 0.3807684455 0.3807684455
0.3810869214 0.3810869214 0.3810869214
0.3814049184 0.3814049184 0.3814049184
0.3817224382 0.3817224382 0.3817224382
0.3820394820 0.3820394820 0.3820394820
0.3823560514 0.3823560514 0.3823560514
0.3826721477 0.3826721477 0.3826721477
0.3829877724 0.3829877724 0.3829877724
0.3833029268 0.3833029268 0.3833029268
0.3836176124 0.3836176124 0.3836176124
0.3839318306 0.3839318306 0.3839318306
0.3842455827 0.3842455827 0.3842455827
0.3845588701 0.3845588701 0.3845588701
0.3848716943 0.3848716943 0.3848716943
0.3851840565 0.3851840565 0.3851840565
0.3854959581 0.3854959581 0.3854959581
0.3858074005 0.3858074005 0.3858074005
0.3861183850 0.3861183850 0.3861183850
0.3864289130 0.3864289130 0.3864289130
0.3867389859 0.3867389859 0.3867389859
0.3870486049 0.3870486049 0.3870486049
0.3873577713 0.3873577713 0.3873577713
0.3876664866 0.3876664866 0.3876664866
0.3879747519 0.3879747519 0.3879747519
0.3882825687 0.3882825687 0.3882825687
0.3885899383 0.3885899383 0.3885899383
0.3888968618 0.3888968618 0.3888968618
0.3892033407 0.3892033407 0.3892033407
0.3895093761 0.3895093761 0.3895093761
0.3898149695 0.3898149695 0.3898149695
0.3901201220 0.3901201220 0.3901201220
0.3904248349 0.3904248349 0.3904248349
0.3907291095 0.3907291095 0.3907291095
0.3910329471 0.3910329471 0.3910329471
0.3913363489 0.3913363489 0.3913363489
0.3916393161 0.3916393161 0.3916393161
0.3919418500 0.3919418500 0.3919418500
0.3922439519 0.3922439519 0.3922439519
0.3925456229 0.3925456229 0.3925456229
0.3928468644 0.3928468644 0.3928468644
0.3931476774 0.3931476774 0.3931476774
0.3934480633 0.3934480633 0.3934480633
0.3937480232 0.3937480232 0.3937480232
0.3940475584 0.3940475584 0.3940475584
0.3943466700 0.3943466700 0.3943466700
0.3946453593 0.3946453593 0.3946453593
0.3949436274 0.3949436274 0.3949436274
0.3952414756 0.3952414756 0.3952414756
0.3955389049 0.3955389049 0.3955389049
0.3958359167 0.3958359167 0.3958359167
0.3961325119 0.3961325119 0.3961325119
0.3964286919 0.3964286919 0.3964286919
0.3967244578 0.3967244578 0.3967244578
0.3970198108 0.3970198108 0.3970198108
0.3973147519 0.3973147519 0.3973147519
0.3976092823 0.3976092823 0.3976092823
0.3979034032 0.3979034032 0.3979034032
0.3981971158 0.3981971158 0.3981971158
0.3984904211 0.3984904211 0.3984904211
0.3987833202 0.3987833202 0.3987833202
