log113_to_lin.cube
LUT_1D_SIZE 12288
0.0000000000 0.0000000000 0.0000000000
0.0000034359 0.0000034359 0.0000034359
0.0000068731 0.0000068731 0.0000068731
0.0000103117 0.0000103117 0.0000103117
0.0000137515 0.0000137515 0.0000137515
0.0000171927 0.0000171927 0.0000171927
0.0000206353 0.0000206353 0.0000206353
0.0000240791 0.0000240791 0.0000240791
0.0000275243 0.0000275243 0.0000275243
0.0000309708 0.0000309708 0.0000309708
0.0000344186 0.0000344186 0.0000344186
0.0000378677 0.0000378677 0.0000378677
0.0000413182 0.0000413182 0.0000413182
0.0000447700 0.0000447700 0.0000447700
0.0000482231 0.0000482231 0.0000482231
0.0000516776 0.0000516776 0.0000516776
0.0000551334 0.0000551334 0.0000551334
0.0000585905 0.0000585905 0.0000585905
0.0000620490 0.0000620490 0.0000620490
0.0000655087 0.0000655087 0.0000655087
0.0000689699 0.0000689699 0.0000689699
0.0000724323 0.0000724323 0.0000724323
0.0000758961 0.0000758961 0.0000758961
0.0000793612 0.0000793612 0.0000793612
0.0000828276 0.0000828276 0.0000828276
0.0000862954 0.0000862954 0.0000862954
0.0000897645 0.0000897645 0.0000897645
0.0000932350 0.0000932350 0.0000932350
0.0000967068 0.0000967068 0.0000967068
0.0001001799 0.0001001799 0.0001001799
0.0001036543 0.0001036543 0.0001036543
0.0001071301 0.0001071301 0.0001071301
0.0001106072 0.0001106072 0.0001106072
0.0001140857 0.0001140857 0.0001140857
0.0001175655 0.0001175655 0.0001175655
0.0001210467 0.0001210467 0.0001210467
0.0001245291 0.0001245291 0.0001245291
0.0001280130 0.0001280130 0.0001280130
0.0001314981 0.0001314981 0.0001314981
0.0001349846 0.0001349846 0.0001349846
0.0001384725 0.0001384725 0.0001384725
0.0001419617 0.0001419617 0.0001419617
0.0001454522 0.0001454522 0.0001454522
0.0001489441 0.0001489441 0.0001489441
0.0001524373 0.0001524373 0.0001524373
0.0001559319 0.0001559319 0.0001559319
0.0001594278 0.0001594278 0.0001594278
0.0001629250 0.0001629250 0.0001629250
0.0001664236 0.0001664236 0.0001664236
0.0001699236 0.0001699236 0.0001699236
0.0001734249 0.0001734249 0.0001734249
0.0001769275 0.0001769275 0.0001769275
0.0001804315 0.0001804315 0.0001804315
0.0001839368 0.0001839368 0.0001839368
0.0001874435 0.0001874435 0.0001874435
0.0001909516 0.0001909516 0.0001909516
0.0001944609 0.0001944609 0.0001944609
0.0001979717 0.0001979717 0.0001979717
0.0002014838 0.0002014838 0.0002014838
0.0002049972 0.0002049972 0.0002049972
0.0002085120 0.0002085120 0.0002085120
0.0002120281 0.0002120281 0.0002120281
0.0002155456 0.0002155456 0.0002155456
0.0002190645 0.0002190645 0.0002190645
0.0002225847 0.0002225847 0.0002225847
0.0002261062 0.0002261062 0.0002261062
0.0002296292 0.0002296292 0.0002296292
0.0002331534 0.0002331534 0.0002331534
0.0002366791 0.0002366791 0.0002366791
0.0002402060 0.0002402060 0.0002402060
0.0002437344 0.0002437344 0.0002437344
0.0002472641 0.0002472641 0.0002472641
0.0002507951 0.0002507951 0.0002507951
0.0002543275 0.0002543275 0.0002543275
0.0002578613 0.0002578613 0.0002578613
0.0002613965 0.0002613965 0.0002613965
0.0002649329 0.0002649329 0.0002649329
0.0002684708 0.0002684708 0.0002684708
0.0002720100 0.0002720100 0.0002720100
0.0002755506 0.0002755506 0.0002755506
0.0002790925 0.0002790925 0.0002790925
0.0002826358 0.0002826358 0.0002826358
0.0002861805 0.0002861805 0.0002861805
0.0002897265 0.0002897265 0.0002897265
0.0002932739 0.0002932739 0.0002932739
0.0002968227 0.0002968227 0.0002968227
0.0003003728 0.0003003728 0.0003003728
0.0003039243 0.0003039243 0.0003039243
0.0003074772 0.0003074772 0.0003074772
0.0003110314 0.0003110314 0.0003110314
0.0003145870 0.0003145870 0.0003145870
0.0003181440 0.0003181440 0.0003181440
0.0003217023 0.0003217023 0.0003217023
0.0003252620 0.0003252620 0.0003252620
0.0003288231 0.0003288231 0.0003288231
0.0003323855 0.0003323855 0.0003323855
0.0003359493 0.0003359493 0.0003359493
0.0003395145 0.0003395145 0.0003395145
0.0003430811 0.0003430811 0.0003430811
0.0003466490 0.0003466490 0.0003466490
0.0003502183 0.0003502183 0.0003502183
0.0003537890 0.0003537890 0.0003537890
0.0003573610 0.0003573610 0.0003573610
0.0003609344 0.0003609344 0.0003609344
0.0003645092 0.0003645092 0.0003645092
0.0003680854 0.0003680854 0.0003680854
0.0003716630 0.0003716630 0.0003716630
0.0003752419 0.0003752419 0.0003752419
0.0003788222 0.0003788222 0.0003788222
0.0003824039 0.0003824039 0.0003824039
0.0003859869 0.0003859869 0.0003859869
0.0003895714 0.0003895714 0.0003895714
0.0003931572 0.0003931572 0.0003931572
0.0003967444 0.0003967444 0.0003967444
0.0004003330 0.0004003330 0.0004003330
0.0004039229 0.0004039229 0.0004039229
0.0004075143 0.0004075143 0.0004075143
0.0004111070 0.0004111070 0.0004111070
0.0004147011 0.0004147011 0.0004147011
0.0004182966 0.0004182966 0.0004182966
0.0004218934 0.0004218934 0.0004218934
0.0004254917 0.0004254917 0.0004254917
0.0004290913 0.0004290913 0.0004290913
0.0004326924 0.0004326924 0.0004326924
0.0004362948 0.0004362948 0.0004362948
0.0004398986 0.0004398986 0.0004398986
0.0004435038 0.0004435038 0.0004435038
0.0004471103 0.0004471103 0.0004471103
0.0004507183 0.0004507183 0.0004507183
0.0004543277 0.0004543277 0.0004543277
0.0004579384 0.0004579384 0.0004579384
0.0004615505 0.0004615505 0.0004615505
0.0004651640 0.0004651640 0.0004651640
0.0004687789 0.0004687789 0.0004687789
0.0004723952 0.0004723952 0.0004723952
0.0004760129 0.0004760129 0.0004760129
0.0004796320 0.0004796320 0.0004796320
0.0004832525 0.0004832525 0.0004832525
0.0004868744 0.0004868744 0.0004868744
0.0004904976 0.0004904976 0.0004904976
0.0004941223 0.0004941223 0.0004941223
0.0004977483 0.0004977483 0.0004977483
0.0005013758 0.0005013758 0.0005013758
0.0005050046 0.0005050046 0.0005050046
0.0005086349 0.0005086349 0.0005086349
0.0005122665 0.0005122665 0.0005122665
0.0005158995 0.0005158995 0.0005158995
0.0005195340 0.0005195340 0.0005195340
0.0005231698 0.0005231698 0.0005231698
0.0005268070 0.0005268070 0.0005268070
0.0005304457 0.0005304457 0.0005304457
0.0005340857 0.0005340857 0.0005340857
0.0005377271 0.0005377271 0.0005377271
0.0005413699 0.0005413699 0.0005413699
0.0005450142 0.0005450142 0.0005450142
0.0005486598 0.0005486598 0.0005486598
0.0005523069 0.0005523069 0.0005523069
0.0005559553 0.0005559553 0.0005559553
0.0005596051 0.0005596051 0.0005596051
0.0005632564 0.0005632564 0.0005632564
0.0005669090 0.0005669090 0.0005669090
0.0005705631 0.0005705631 0.0005705631
0.0005742186 0.0005742186 0.0005742186
0.0005778755 0.0005778755 0.0005778755
0.0005815337 0.0005815337 0.0005815337
0.0005851934 0.0005851934 0.0005851934
0.0005888545 0.0005888545 0.0005888545
0.0005925170 0.0005925170 0.0005925170
0.0005961809 0.0005961809 0.0005961809
0.0005998463 0.0005998463 0.0005998463
0.0006035130 0.0006035130 0.0006035130
0.0006071812 0.0006071812 0.0006071812
0.0006108507 0.0006108507 0.0006108507
0.0006145217 0.0006145217 0.0006145217
0.0006181941 0.0006181941 0.0006181941
0.0006218679 0.0006218679 0.0006218679
0.0006255431 0.0006255431 0.0006255431
0.0006292197 0.0006292197 0.0006292197
0.0006328977 0.0006328977 0.0006328977
0.0006365772 0.0006365772 0.0006365772
0.0006402581 0.0006402581 0.0006402581
0.0006439404 0.0006439404 0.0006439404
0.0006476241 0.0006476241 0.0006476241
0.0006513092 0.0006513092 0.0006513092
0.0006549957 0.0006549957 0.0006549957
0.0006586837 0.0006586837 0.0006586837
0.0006623731 0.0006623731 0.0006623731
0.0006660639 0.0006660639 0.0006660639
0.0006697561 0.0006697561 0.0006697561
0.0006734497 0.0006734497 0.0006734497
0.0006771448 0.0006771448 0.0006771448
0.0006808413 0.0006808413 0.0006808413
0.0006845392 0.0006845392 0.0006845392
0.0006882385 0.0006882385 0.0006882385
0.0006919392 0.0006919392 0.0006919392
0.0006956414 0.0006956414 0.0006956414
0.0006993450 0.0006993450 0.0006993450
0.0007030501 0.0007030501 0.0007030501
0.0007067565 0.0007067565 0.0007067565
0.0007104644 0.0007104644 0.0007104644
0.0007141737 0.0007141737 0.0007141737
0.0007178844 0.0007178844 0.0007178844
0.0007215966 0.0007215966 0.0007215966
0.0007253102 0.0007253102 0.0007253102
0.0007290252 0.0007290252 0.0007290252
0.0007327416 0.0007327416 0.0007327416
0.0007364595 0.0007364595 0.0007364595
0.0007401788 0.0007401788 0.0007401788
0.0007438996 0.0007438996 0.0007438996
0.0007476217 0.0007476217 0.0007476217
0.0007513453 0.0007513453 0.0007513453
0.0007550704 0.0007550704 0.0007550704
0.0007587968 0.0007587968 0.0007587968
0.0007625247 0.0007625247 0.0007625247
0.0007662541 0.0007662541 0.0007662541
0.0007699849 0.0007699849 0.0007699849
0.0007737171 0.0007737171 0.0007737171
0.0007774507 0.0007774507 0.0007774507
0.0007811858 0.0007811858 0.0007811858
0.0007849223 0.0007849223 0.0007849223
0.0007886603 0.0007886603 0.0007886603
0.0007923997 0.0007923997 0.0007923997
0.0007961405 0.0007961405 0.0007961405
0.0007998828 0.0007998828 0.0007998828
0.0008036265 0.0008036265 0.0008036265
0.0008073716 0.0008073716 0.0008073716
0.0008111182 0.0008111182 0.0008111182
0.0008148663 0.0008148663 0.0008148663
0.0008186158 0.0008186158 0.0008186158
0.0008223667 0.0008223667 0.0008223667
0.0008261191 0.0008261191 0.0008261191
0.0008298729 0.0008298729 0.0008298729
0.0008336281 0.0008336281 0.0008336281
0.0008373848 0.0008373848 0.0008373848
0.0008411430 0.0008411430 0.0008411430
0.0008449026 0.0008449026 0.0008449026
0.0008486636 0.0008486636 0.0008486636
0.0008524261 0.0008524261 0.0008524261
0.0008561900 0.0008561900 0.0008561900
0.0008599554 0.0008599554 0.0008599554
0.0008637222 0.0008637222 0.0008637222
0.0008674905 0.0008674905 0.0008674905
0.0008712602 0.0008712602 0.0008712602
0.0008750314 0.0008750314 0.0008750314
0.0008788041 0.0008788041 0.0008788041
0.0008825782 0.0008825782 0.0008825782
0.0008863537 0.0008863537 0.0008863537
0.0008901307 0.0008901307 0.0008901307
0.0008939091 0.0008939091 0.0008939091
0.0008976890 0.0008976890 0.0008976890
0.0009014704 0.0009014704 0.0009014704
0.0009052532 0.0009052532 0.0009052532
0.0009090374 0.0009090374 0.0009090374
0.0009128232 0.0009128232 0.0009128232
0.0009166103 0.0009166103 0.0009166103
0.0009203990 0.0009203990 0.0009203990
0.0009241891 0.0009241891 0.0009241891
0.0009279806 0.0009279806 0.0009279806
0.0009317736 0.0009317736 0.0009317736
0.0009355681 0.0009355681 0.0009355681
0.0009393640 0.0009393640 0.0009393640
0.0009431614 0.0009431614 0.0009431614
0.0009469603 0.0009469603 0.0009469603
0.0009507606 0.0009507606 0.0009507606
0.0009545624 0.0009545624 0.0009545624
0.0009583656 0.0009583656 0.0009583656
0.0009621703 0.0009621703 0.0009621703
0.0009659765 0.0009659765 0.0009659765
0.0009697841 0.0009697841 0.0009697841
0.0009735932 0.0009735932 0.0009735932
0.0009774038 0.0009774038 0.0009774038
0.0009812158 0.0009812158 0.0009812158
0.0009850293 0.0009850293 0.0009850293
0.0009888442 0.0009888442 0.0009888442
0.0009926607 0.0009926607 0.0009926607
0.0009964786 0.0009964786 0.0009964786
0.0010002979 0.0010002979 0.0010002979
0.0010041188 0.0010041188 0.0010041188
0.0010079411 0.0010079411 0.0010079411
0.0010117649 0.0010117649 0.0010117649
0.0010155901 0.0010155901 0.0010155901
0.0010194168 0.0010194168 0.0010194168
0.0010232450 0.0010232450 0.0010232450
0.0010270747 0.0010270747 0.0010270747
0.0010309059 0.0010309059 0.0010309059
0.0010347385 0.0010347385 0.0010347385
0.0010385726 0.0010385726 0.0010385726
0.0010424081 0.0010424081 0.0010424081
0.0010462452 0.0010462452 0.0010462452
0.0010500837 0.0010500837 0.0010500837
0.0010539237 0.0010539237 0.0010539237
0.0010577652 0.0010577652 0.0010577652
0.0010616081 0.0010616081 0.0010616081
0.0010654526 0.0010654526 0.0010654526
0.0010692985 0.0010692985 0.0010692985
0.0010731459 0.0010731459 0.0010731459
0.0010769947 0.0010769947 0.0010769947
0.0010808451 0.0010808451 0.0010808451
0.0010846969 0.0010846969 0.0010846969
0.0010885502 0.0010885502 0.0010885502
0.0010924050 0.0010924050 0.0010924050
0.0010962613 0.0010962613 0.0010962613
0.0011001191 0.0011001191 0.0011001191
0.0011039783 0.0011039783 0.0011039783
0.0011078391 0.0011078391 0.0011078391
0.0011117013 0.0011117013 0.0011117013
0.0011155650 0.0011155650 0.0011155650
0.0011194302 0.0011194302 0.0011194302
0.0011232969 0.0011232969 0.0011232969
0.0011271651 0.0011271651 0.0011271651
0.0011310347 0.0011310347 0.0011310347
0.0011349059 0.0011349059 0.0011349059
0.0011387785 0.0011387785 0.0011387785
0.0011426526 0.0011426526 0.0011426526
0.0011465283 0.0011465283 0.0011465283
0.0011504054 0.0011504054 0.0011504054
0.0011542840 0.0011542840 0.0011542840
0.0011581641 0.0011581641 0.0011581641
0.0011620457 0.0011620457 0.0011620457
0.0011659287 0.0011659287 0.0011659287
0.0011698133 0.0011698133 0.0011698133
0.0011736994 0.0011736994 0.0011736994
0.0011775870 0.0011775870 0.0011775870
0.0011814760 0.0011814760 0.0011814760
0.0011853666 0.0011853666 0.0011853666
0.0011892586 0.0011892586 0.0011892586
0.0011931522 0.0011931522 0.0011931522
0.0011970472 0.0011970472 0.0011970472
0.0012009438 0.0012009438 0.0012009438
0.0012048418 0.0012048418 0.0012048418
0.0012087414 0.0012087414 0.0012087414
0.0012126425 0.0012126425 0.0012126425
0.0012165450 0.0012165450 0.0012165450
0.0012204491 0.0012204491 0.0012204491
0.0012243546 0.0012243546 0.0012243546
0.0012282617 0.0012282617 0.0012282617
0.0012321702 0.0012321702 0.0012321702
0.0012360803 0.0012360803 0.0012360803
0.0012399919 0.0012399919 0.0012399919
0.0012439050 0.0012439050 0.0012439050
0.0012478195 0.0012478195 0.0012478195
0.0012517356 0.0012517356 0.0012517356
0.0012556532 0.0012556532 0.0012556532
0.0012595723 0.0012595723 0.0012595723
0.0012634930 0.0012634930 0.0012634930
0.0012674151 0.0012674151 0.0012674151
0.0012713387 0.0012713387 0.0012713387
0.0012752638 0.0012752638 0.0012752638
0.0012791905 0.0012791905 0.0012791905
0.0012831187 0.0012831187 0.0012831187
0.0012870483 0.0012870483 0.0012870483
0.0012909795 0.0012909795 0.0012909795
0.0012949122 0.0012949122 0.0012949122
0.0012988464 0.0012988464 0.0012988464
0.0013027822 0.0013027822 0.0013027822
0.0013067194 0.0013067194 0.0013067194
0.0013106582 0.0013106582 0.0013106582
0.0013145984 0.0013145984 0.0013145984
0.0013185402 0.0013185402 0.0013185402
0.0013224835 0.0013224835 0.0013224835
0.0013264283 0.0013264283 0.0013264283
0.0013303747 0.0013303747 0.0013303747
0.0013343225 0.0013343225 0.0013343225
0.0013382719 0.0013382719 0.0013382719
0.0013422228 0.0013422228 0.0013422228
0.0013461752 0.0013461752 0.0013461752
0.0013501292 0.0013501292 0.0013501292
0.0013540846 0.0013540846 0.0013540846
0.0013580416 0.0013580416 0.0013580416
0.0013620001 0.0013620001 0.0013620001
0.0013659602 0.0013659602 0.0013659602
0.0013699217 0.0013699217 0.0013699217
0.0013738848 0.0013738848 0.0013738848
0.0013778494 0.0013778494 0.0013778494
0.0013818155 0.0013818155 0.0013818155
0.0013857832 0.0013857832 0.0013857832
0.0013897524 0.0013897524 0.0013897524
0.0013937231 0.0013937231 0.0013937231
0.0013976953 0.0013976953 0.0013976953
0.0014016691 0.0014016691 0.0014016691
0.0014056444 0.0014056444 0.0014056444
0.0014096212 0.0014096212 0.0014096212
0.0014135995 0.0014135995 0.0014135995
0.0014175794 0.0014175794 0.0014175794
0.0014215609 0.0014215609 0.0014215609
0.0014255438 0.0014255438 0.0014255438
0.0014295283 0.0014295283 0.0014295283
0.0014335143 0.0014335143 0.0014335143
0.0014375018 0.0014375018 0.0014375018
0.0014414909 0.0014414909 0.0014414909
0.0014454816 0.0014454816 0.0014454816
0.0014494737 0.0014494737 0.0014494737
0.0014534674 0.0014534674 0.0014534674
0.0014574626 0.0014574626 0.0014574626
0.0014614594 0.0014614594 0.0014614594
0.0014654577 0.0014654577 0.0014654577
0.0014694575 0.0014694575 0.0014694575
0.0014734589 0.0014734589 0.0014734589
0.0014774618 0.0014774618 0.0014774618
0.0014814663 0.0014814663 0.0014814663
0.0014854723 0.0014854723 0.0014854723
0.0014894798 0.0014894798 0.0014894798
0.0014934889 0.0014934889 0.0014934889
0.0014974996 0.0014974996 0.0014974996
0.0015015117 0.0015015117 0.0015015117
0.0015055255 0.0015055255 0.0015055255
0.0015095407 0.0015095407 0.0015095407
0.0015135575 0.0015135575 0.0015135575
0.0015175759 0.0015175759 0.0015175759
0.0015215958 0.0015215958 0.0015215958
0.0015256172 0.0015256172 0.0015256172
0.0015296402 0.0015296402 0.0015296402
0.0015336648 0.0015336648 0.0015336648
0.0015376908 0.0015376908 0.0015376908
0.0015417185 0.0015417185 0.0015417185
0.0015457477 0.0015457477 0.0015457477
0.0015497784 0.0015497784 0.0015497784
0.0015538107 0.0015538107 0.0015538107
0.0015578445 0.0015578445 0.0015578445
0.0015618799 0.0015618799 0.0015618799
0.0015659169 0.0015659169 0.0015659169
0.0015699554 0.0015699554 0.0015699554
0.0015739954 0.0015739954 0.0015739954
0.0015780370 0.0015780370 0.0015780370
0.0015820802 0.0015820802 0.0015820802
0.0015861249 0.0015861249 0.0015861249
0.0015901712 0.0015901712 0.0015901712
0.0015942190 0.0015942190 0.0015942190
0.0015982684 0.0015982684 0.0015982684
0.0016023194 0.0016023194 0.0016023194
0.0016063719 0.0016063719 0.0016063719
0.0016104260 0.0016104260 0.0016104260
0.0016144816 0.0016144816 0.0016144816
0.0016185388 0.0016185388 0.0016185388
0.0016225975 0.0016225975 0.0016225975
0.0016266578 0.0016266578 0.0016266578
0.0016307197 0.0016307197 0.0016307197
0.0016347832 0.0016347832 0.0016347832
0.0016388482 0.0016388482 0.0016388482
0.0016429147 0.0016429147 0.0016429147
0.0016469829 0.0016469829 0.0016469829
0.0016510526 0.0016510526 0.0016510526
0.0016551238 0.0016551238 0.0016551238
0.0016591967 0.0016591967 0.0016591967
0.0016632711 0.0016632711 0.0016632711
0.0016673470 0.0016673470 0.0016673470
0.0016714245 0.0016714245 0.0016714245
0.0016755037 0.0016755037 0.0016755037
0.0016795843 0.0016795843 0.0016795843
0.0016836666 0.0016836666 0.0016836666
0.0016877504 0.0016877504 0.0016877504
0.0016918358 0.0016918358 0.0016918358
0.0016959227 0.0016959227 0.0016959227
0.0017000113 0.0017000113 0.0017000113
0.0017041014 0.0017041014 0.0017041014
0.0017081930 0.0017081930 0.0017081930
0.0017122863 0.0017122863 0.0017122863
0.0017163811 0.0017163811 0.0017163811
0.0017204775 0.0017204775 0.0017204775
0.0017245755 0.0017245755 0.0017245755
0.0017286750 0.0017286750 0.0017286750
0.0017327762 0.0017327762 0.0017327762
0.0017368789 0.0017368789 0.0017368789
0.0017409832 0.0017409832 0.0017409832
0.0017450891 0.0017450891 0.0017450891
0.0017491965 0.0017491965 0.0017491965
0.0017533055 0.0017533055 0.0017533055
0.0017574161 0.0017574161 0.0017574161
0.0017615283 0.0017615283 0.0017615283
0.0017656421 0.0017656421 0.0017656421
0.0017697575 0.0017697575 0.0017697575
0.0017738744 0.0017738744 0.0017738744
0.0017779929 0.0017779929 0.0017779929
0.0017821131 0.0017821131 0.0017821131
0.0017862348 0.0017862348 0.0017862348
0.0017903580 0.0017903580 0.0017903580
0.0017944829 0.0017944829 0.0017944829
0.0017986094 0.0017986094 0.0017986094
0.0018027374 0.0018027374 0.0018027374
0.0018068671 0.0018068671 0.0018068671
0.0018109983 0.0018109983 0.0018109983
0.0018151311 0.0018151311 0.0018151311
0.0018192655 0.0018192655 0.0018192655
0.0018234015 0.0018234015 0.0018234015
0.0018275391 0.0018275391 0.0018275391
0.0018316783 0.0018316783 0.0018316783
0.0018358190 0.0018358190 0.0018358190
0.0018399614 0.0018399614 0.0018399614
0.0018441053 0.0018441053 0.0018441053
0.0018482509 0.0018482509 0.0018482509
0.0018523981 0.0018523981 0.0018523981
0.0018565468 0.0018565468 0.0018565468
0.0018606971 0.0018606971 0.0018606971
0.0018648491 0.0018648491 0.0018648491
0.0018690026 0.0018690026 0.0018690026
0.0018731577 0.0018731577 0.0018731577
0.0018773145 0.0018773145 0.0018773145
0.0018814728 0.0018814728 0.0018814728
0.0018856327 0.0018856327 0.0018856327
0.0018897943 0.0018897943 0.0018897943
0.0018939574 0.0018939574 0.0018939574
0.0018981222 0.0018981222 0.0018981222
0.0019022885 0.0019022885 0.0019022885
0.0019064564 0.0019064564 0.0019064564
0.0019106260 0.0019106260 0.0019106260
0.0019147971 0.0019147971 0.0019147971
0.0019189699 0.0019189699 0.0019189699
0.0019231443 0.0019231443 0.0019231443
0.0019273202 0.0019273202 0.0019273202
0.0019314978 0.0019314978 0.0019314978
0.0019356770 0.0019356770 0.0019356770
0.0019398578 0.0019398578 0.0019398578
0.0019440402 0.0019440402 0.0019440402
0.0019482242 0.0019482242 0.0019482242
0.0019524098 0.0019524098 0.0019524098
0.0019565970 0.0019565970 0.0019565970
0.0019607859 0.0019607859 0.0019607859
0.0019649763 0.0019649763 0.0019649763
0.0019691684 0.0019691684 0.0019691684
0.0019733621 0.0019733621 0.0019733621
0.0019775574 0.0019775574 0.0019775574
0.0019817543 0.0019817543 0.0019817543
0.0019859528 0.0019859528 0.0019859528
0.0019901530 0.0019901530 0.0019901530
0.0019943547 0.0019943547 0.0019943547
0.0019985581 0.0019985581 0.0019985581
0.0020027631 0.0020027631 0.0020027631
0.0020069697 0.0020069697 0.0020069697
0.0020111779 0.0020111779 0.0020111779
0.0020153878 0.0020153878 0.0020153878
0.0020195992 0.0020195992 0.0020195992
0.0020238123 0.0020238123 0.0020238123
0.0020280270 0.0020280270 0.0020280270
0.0020322434 0.0020322434 0.0020322434
0.0020364613 0.0020364613 0.0020364613
0.0020406809 0.0020406809 0.0020406809
0.0020449021 0.0020449021 0.0020449021
0.0020491249 0.0020491249 0.0020491249
0.0020533494 0.0020533494 0.0020533494
0.0020575754 0.0020575754 0.0020575754
0.0020618031 0.0020618031 0.0020618031
0.0020660325 0.0020660325 0.0020660325
0.0020702634 0.0020702634 0.0020702634
0.0020744960 0.0020744960 0.0020744960
0.0020787302 0.0020787302 0.0020787302
0.0020829661 0.0020829661 0.0020829661
0.0020872035 0.0020872035 0.0020872035
0.0020914426 0.0020914426 0.0020914426
0.0020956834 0.0020956834 0.0020956834
0.0020999257 0.0020999257 0.0020999257
0.0021041697 0.0021041697 0.0021041697
0.0021084154 0.0021084154 0.0021084154
0.0021126626 0.0021126626 0.0021126626
0.0021169115 0.0021169115 0.0021169115
0.0021211621 0.0021211621 0.0021211621
0.0021254142 0.0021254142 0.0021254142
0.0021296681 0.0021296681 0.0021296681
0.0021339235 0.0021339235 0.0021339235
0.0021381806 0.0021381806 0.0021381806
0.0021424393 0.0021424393 0.0021424393
0.0021466997 0.0021466997 0.0021466997
0.0021509617 0.0021509617 0.0021509617
0.0021552253 0.0021552253 0.0021552253
0.0021594906 0.0021594906 0.0021594906
0.0021637575 0.0021637575 0.0021637575
0.0021680261 0.0021680261 0.0021680261
0.0021722963 0.0021722963 0.0021722963
0.0021765681 0.0021765681 0.0021765681
0.0021808416 0.0021808416 0.0021808416
0.0021851167 0.0021851167 0.0021851167
0.0021893935 0.0021893935 0.0021893935
0.0021936719 0.0021936719 0.0021936719
0.0021979520 0.0021979520 0.0021979520
0.0022022337 0.0022022337 0.0022022337
0.0022065171 0.0022065171 0.0022065171
0.0022108021 0.0022108021 0.0022108021
0.0022150888 0.0022150888 0.0022150888
0.0022193771 0.0022193771 0.0022193771
0.0022236671 0.0022236671 0.0022236671
0.0022279587 0.0022279587 0.0022279587
0.0022322520 0.0022322520 0.0022322520
0.0022365469 0.0022365469 0.0022365469
0.0022408435 0.0022408435 0.0022408435
0.0022451417 0.0022451417 0.0022451417
0.0022494416 0.0022494416 0.0022494416
0.0022537431 0.0022537431 0.0022537431
0.0022580463 0.0022580463 0.0022580463
0.0022623511 0.0022623511 0.0022623511
0.0022666576 0.0022666576 0.0022666576
0.0022709658 0.0022709658 0.0022709658
0.0022752756 0.0022752756 0.0022752756
0.0022795871 0.0022795871 0.0022795871
0.0022839002 0.0022839002 0.0022839002
0.0022882150 0.0022882150 0.0022882150
0.0022925315 0.0022925315 0.0022925315
0.0022968496 0.0022968496 0.0022968496
0.0023011694 0.0023011694 0.0023011694
0.0023054908 0.0023054908 0.0023054908
0.0023098139 0.0023098139 0.0023098139
0.0023141387 0.0023141387 0.0023141387
0.0023184651 0.0023184651 0.0023184651
0.0023227932 0.0023227932 0.0023227932
0.0023271230 0.0023271230 0.0023271230
0.0023314544 0.0023314544 0.0023314544
0.0023357875 0.0023357875 0.0023357875
0.0023401223 0.0023401223 0.0023401223
0.0023444587 0.0023444587 0.0023444587
0.0023487968 0.0023487968 0.0023487968
0.0023531366 0.0023531366 0.0023531366
0.0023574780 0.0023574780 0.0023574780
0.0023618211 0.0023618211 0.0023618211
0.0023661659 0.0023661659 0.0023661659
0.0023705124 0.0023705124 0.0023705124
0.0023748605 0.0023748605 0.0023748605
